X: 180
T:The Herdsman's House Hooley
M:3/2
L:1/8
C:Chris Ormston (copyrighted)
Z:bil@blueskiesink.com
K:D
D2 FGAGFE F2 D2|E2 e4 f2 e4|D2 FGAGFE F2 D2|D2 d4 c2 d4:||!
f2 d2 e2 c2 d2 F2|E2 e4 f2 e4|f2 d2 e2 c2 d2 F2|D2 d4 c2 d4:||

